public/assets/images/field-s02.svg

<svg width="18" height="18" viewBox="0 0 18 18" fill="none" xmlns="http://www.w3.org/2000/svg">
<path d="M1.5 1C1.5 0.723858 1.72386 0.5 2 0.5H15C15.2761 0.5 15.5 0.723858 15.5 1V5.5H2C1.72386 5.5 1.5 5.27614 1.5 5V1Z" stroke="#4F66EE"/>
<path d="M3.5 5.5H15.5V17C15.5 17.2761 15.2761 17.5 15 17.5H4C3.72386 17.5 3.5 17.2761 3.5 17V5.5Z" stroke="#4F66EE"/>
<line x1="6.5" y1="8.5" x2="12.5" y2="8.5" stroke="#4F66EE" stroke-linecap="round"/>
<path d="M10.5 2.5L11.5 3.5L12.5 2.5" stroke="#4F66EE" stroke-linecap="round" stroke-linejoin="round"/>
<line x1="6.5" y1="11.5" x2="12.5" y2="11.5" stroke="#4F66EE" stroke-linecap="round"/>
<line x1="6.5" y1="14.5" x2="12.5" y2="14.5" stroke="#4F66EE" stroke-linecap="round"/>
</svg>

<svg width="18" height="18" fill="none" xmlns="http://www.w3.org/2000/svg"><path d="M1.5 1A.5.5 0 012 .5h13a.5.5 0 01.5.5v4.5H2a.5.5 0 01-.5-.5V1zM3.5 5.5h12V17a.5.5 0 01-.5.5H4a.5.5 0 01-.5-.5V5.5z" stroke="#4F66EE"/><path stroke="#4F66EE" stroke-linecap="round" d="M6.5 8.5h6"/><path d="M10.5 2.5l1 1 1-1" stroke="#4F66EE" stroke-linecap="round" stroke-linejoin="round"/><path stroke="#4F66EE" stroke-linecap="round" d="M6.5 11.5h6M6.5 14.5h6"/></svg>
